!!!!SEGMENT: pl-kk--kk-i-485_anonim--gaudeamus-omnes.krn
!!!cenid: 18xx:1391
!!!COM: Anonim
!!!COM-rism: pe30004985
!!!CDT:
!!!CNT:
!!!OTL: Gaudeamus omnes
!!!PDT:
!!!AGN: Sacred
!!!SMS-siglum: PL-Kk
!!!SMS-shelfmark: Kk.I.485
!!!NIFC-rismID: 1001140596
!!!URL-scan: http://repozytorium.nifc.pl/skany/pl-kk-nut--i-485
!!!ONB-nifc: UWAGA: na podstawie partytury skany 0011-0012. Proszę uzupełnić pola !!!SMS
!!!SMS-variant: Tenor 1:PL-KK-KK-I-357:1 Tenor 2.:PL-KK-KK-I-357:3 Basſ. 1o.:PL-KK-KK-I-357:5 Basſ. 2o.:PL-KK-KK-I-357:7
!!!SMS-altvar: Tenor 1:PL-KK-KK-I-357:11-12 Tenor 2.:PL-KK-KK-I-357:11-12 Bas 1.:PL-KK-KK-I-357:11-12 Bas 2.:PL-KK-KK-I-357:11-12
**kern	**text	**kern	**text	**kern	**text	**kern	**text	**kern	**text
*part5	*part5	*part4	*part4	*part3	*part3	*part2	*part2	*part1	*part1
*staff5	*staff5	*staff4	*staff4	*staff3	*staff3	*staff2	*staff2	*staff1	*staff1
*I"Basſ. 2o	*	*I"Basſ. 1o	*	*I"Tenor 2.	*	*I"Tenor 1.	*	*I"Alto.	*
*I'B 2	*	*I'B 1	*	*I'T 2	*	*I'T 1	*	*I'A	*
*group1	*	*group1	*	*group1	*	*group1	*	*group1	*
*clefF4	*	*clefF4	*	*clefC4	*	*clefC4	*	*clefC3	*
*k[f#c#]	*	*k[f#c#]	*	*k[f#c#]	*	*k[f#c#]	*	*k[f#c#]	*
*D:	*	*D:	*	*D:	*	*D:	*	*D:	*
*M2/4	*	*M2/4	*	*M2/4	*	*M2/4	*	*M2/4	*
=1	=1	=1	=1	=1	=1	=1	=1	=1	=1
*2\right	*	*2\right	*	*2\right	*	*2\right	*	*2\right	*
!	!	!	!	!LO:TX:t=P:problem:all\right:global	!	!	!	!	!
!LO:TX:t=P:problem:all\right:global	!	!LO:TX:t=P:problem:all\right:global	!	!LO:TX:a:i:t=Allo Moderato.	!	!LO:TX:t=P:problem:all\right:global	!	!LO:TX:t=P:problem:all\right:global	!
!LO:TX:a:i:t=Allo Moderato.	!	!LO:TX:a:i:t=Allo Moderato.	!	!LO:N:vis=4	!	!LO:TX:a:i:t=Allo Moderato.	!	!LO:TX:a:i:t=Alto. Moderato.	!
4.D\	Gau-	4.F#\	Gau-	4.A\	Gau-	4.A\	Gau-	4.f#\	Gau-
8F#\	-de-	8A\	-de-	8A\	-de-	8d\	-de-	8a\	-de-
=2	=2	=2	=2	=2	=2	=2	=2	=2	=2
(8E\L	-a-	(8G\L	-a-	(8G/L	-a-	(8c#\L	-a-	8g\L	-a-
8D\J)	.	8F#\J)	.	8F#/J)	.	8B\J)	.	8f#\J	.
(8C#/L	-mus	4E\	-mus	4F#/	-mus	4A\	-mus	4e\	-mus
8AA/J)	.	.	.	.	.	.	.	.	.
=3	=3	=3	=3	=3	=3	=3	=3	=3	=3
8D\	om-	8F#\	o-	8F#/	o-	8A\	o-	8f#\L	om-
(8D\L	-nes	(8G\L	-mnes	(8G/L	-mnes	(16B\LL	-mnes	8g\J	.
.	.	.	.	.	.	16c#\JJ	.	.	.
8F#\J)	.	8A\J)	.	8A/J)	.	8d\)	.	8a\	-nes
8G\	in	8B\	in	8B\	in	8e\	in	8b\	in
=4	=4	=4	=4	=4	=4	=4	=4	=4	=4
(4A\	Do-	(4A\	Do-	(4d\	Do-	(4f#\	Do-	(4a\	Do-
8AA/)	.	8G\)	.	8c#\)	.	8e\)	.	8g\L)	.
8AA/	-mi-	8G\	-mi-	8c#\	-mi-	8e\	-mi-	8g\J	-mi-
=5	=5	=5	=5	=5	=5	=5	=5	=5	=5
4.D\	-no	4.F#\	-no	4.A\	-no	4.d\	-no	4.f#\	-no,
8r	.	8r	.	8r	.	8r	.	8r	.
!	!	!	!	!	!	!LO:LB:g=original	!	!	!
=6	=6	=6	=6	=6	=6	=6	=6	=6	=6
4.C#/	gau-	4.E\	gau-	4.A\	gau-	4.A\	gau-	4.e\	gau-
8C#/	-de-	8E\	-de-	8A\	-de-	8A\	-de-	8e\	-de-
!LO:LB:g=original	!	!LO:LB:g=original	!	!LO:LB:g=original	!	!	!	!LO:LB:g=original	!
=7	=7	=7	=7	=7	=7	=7	=7	=7	=7
(8BB/L	-a-	(4F#\	-a-	4.B\	-a-	(4d\	-a-	(4f#\	-a-
16C#/L	.	.	.	.	.	.	.	.	.
16D/JJ	.	.	.	.	.	.	.	.	.
8E/)	.	8G#X\)	.	.	.	8B\)	.	8g#X\L)	.
16F#\LL	-mus	8B\	-mus	8d\	-mus	8e\	-mus	8b\J	-mus
16G#X\JJ	.	.	.	.	.	.	.	.	.
=8	=8	=8	=8	=8	=8	=8	=8	=8	=8
8A\	om-	8c#\	o-	8c#\	o-	8e\	o-	8cc#\L	om-
(8G#X\L	-nes	(8B\L	-mnes	4c#\	-mnes	(8e#X\L	-mnes	8b\J	.
8F#\J)	.	8A\J)	.	.	.	8f#\J)	.	8a\	-nes
8E\	in	8A\	in	8c#\	in	8f#\	in	8a\	in
=9	=9	=9	=9	=9	=9	=9	=9	=9	=9
(4D\	Do-	4.G#X\	Do-	4.B\	Do-	(4f#\	Do-	4.g#X\	Do-
8C#/)	.	.	.	.	.	8e#X\)	.	.	.
8C#/	-mi-	8G#\	-mi-	8B\	-mi-	8e#\	-mi-	8g#\	-mi-
=10	=10	=10	=10	=10	=10	=10	=10	=10	=10
4F#\	-no	4F#\	-no	4A\	-no	4f#\	-no	4f#\	-no
8r	.	8r	.	8r	.	8r	.	8r	.
16F#\	di-	16A\	di-	16c#\	di-	16f#\	di-	16a\	di-
!	!	!	!	!	!	!LO:N:vis=16.	!	!	!
16F#\	-em	16A\	-em	16c#\	-em	16f#\	-em	16a\	-em
!	!	!	!	!	!	!LO:LB:g=original	!	!	!
=11	=11	=11	=11	=11	=11	=11	=11	=11	=11
8F#\	fe-	8A\	fe-	8c#\	fe-	8c#\	fe-	8a\	fe-
(8F#\L	-stum	(16A\LL	-stum	(16A\LL	-stum	(16c#\LL	-stum	16a\LL	-stum
.	.	16B\JJ	.	16B\JJ	.	16d\JJ	.	16b\JJ	.
8E\J)	.	8A\)	.	8c#\)	.	8e\)	.	8a\	ce-
8E\	ce-	8A\	ce-	8c#\	ce-	8e\	ce-	8a\	-le-
!LO:LB:g=original	!	!LO:LB:g=original	!	!	!	!	!	!LO:LB:g=original	!
=12	=12	=12	=12	=12	=12	=12	=12	=12	=12
2E\	-le-	(4A\	-le-	(4c#\	-le-	2e\	-le-	(4a\	-bran-
.	.	8B\L	.	8d\L	.	.	.	8b\L	.
.	.	8A\J)	.	8c#\J)	.	.	.	8a\J	.
!	!	!	!	!LO:LB:g=original	!	!	!	!	!
=13	=13	=13	=13	=13	=13	=13	=13	=13	=13
2E\	-bran-	(8G#X\L	-bran-	(4B\	-bran-	(8e\L	-bran-	8g#X\L	.
.	.	8B\	.	.	.	8d\	.	8b\J	.
.	.	8A\	.	4e\)	.	8c#\	.	8a\L	.
.	.	8G#\J)	.	.	.	8B\J)	.	8g#\J)	.
=14	=14	=14	=14	=14	=14	=14	=14	=14	=14
4AA/	-tes	4A\	-tes	4A\	-tes	4A\	-tes	4a\	-tes,
4r	.	4r	.	8r	.	4r	.	4r	.
.	.	.	.	8A\	sub	.	.	.	.
=15	=15	=15	=15	=15	=15	=15	=15	=15	=15
!LO:TX:a:t=1.	!	!LO:TX:a:t=1.	!	!	!	!LO:TX:a:t=1.	!	!LO:TX:a:t=1.	!
2r	.	2r	.	8A\	ho-	2r	.	2r	.
.	.	.	.	4A\	-no-	.	.	.	.
.	.	.	.	16A\	-re	.	.	.	.
.	.	.	.	16A\	Be-	.	.	.	.
=16	=16	=16	=16	=16	=16	=16	=16	=16	=16
4r	.	4r	.	4A\	-a-	4r	.	4r	.
8r	.	8r	.	8A\	-tae	8r	.	8r	.
8F#\	sub	8A\	sub	8B#X\	sub	8d#X\	sub	8a\	sub
!	!	!	!	!	!	!LO:LB:g=original	!	!	!
=17	=17	=17	=17	=17	=17	=17	=17	=17	=17
8G\	ho-	8A\	ho-	8c#\	ho-	8e\	ho-	8a\	ho-
4AA/	-no-	4A\	-no-	4A\	-no-	4A\	-no-	4a\	-no-
16AA/	-re	16A\	-re	16A\	-re	16A\	-re	16a\	-re,
16AA/	Be-	16A\	Be-	16A\	Be-	16A\	Be-	16a\	be-
!	!	!	!	!LO:LB:g=original	!	!	!	!LO:LB:g=original	!
=18	=18	=18	=18	=18	=18	=18	=18	=18	=18
4.AA/	-a-	4.A\	-a-	4.A\	-a-	4.A\	-a-	4.a\	-a-
!	!	!	!	!	!	!	!	!LO:SIC:v:l:s=-tae	!
8F#\	-tae	8A\	-tae	8B#X\	-tae	8d#X\	-tae	8a\	-te
!	!	!LO:LB:g=original	!	!	!	!	!	!	!
=19	=19	=19	=19	=19	=19	=19	=19	=19	=19
8G\	Ma-	8A\	Ma-	8c#\	Ma-	8e\	Ma-	8a\	Ma-
4AA/	-ri-	4A\	-ri-	4A\	-ri-	4A\	-ri-	4a\	-ri-
!	!	!	!	!	!	!	!	!LO:SIC:v:l:s=-ae	!
8AA/	-ae	8A\	-ae	8A\	-ae	8A\	-ae	8a\	-e
!LO:LB:g=original	!	!	!	!	!	!	!	!	!
=20	=20	=20	=20	=20	=20	=20	=20	=20	=20
4AA/	Vir-	4A\	Vir-	4A\	Vir-	4A\	Vir-	4a\	Vir-
8AA/	-gi-	8A\	-gi-	8A\	-gi-	8A\	-gi-	8a\	-gi-
8AA/	-nis	8A\	-nis	8A\	-nis.	8A\	-nis	8a\	-nis,
=21	=21	=21	=21	=21	=21	=21	=21	=21	=21
!	!	!LO:TX:a:t=3.	!	!LO:TX:a:t=3.	!	!LO:TX:a:t=3.	!	!LO:TX:a:t=3.	!
!	!	!LO:N:vis=0	!	!LO:N:vis=0	!	!LO:N:vis=0	!	!LO:N:vis=0	!
8AA/	de	1r	.	1r	.	1r	.	1r	.
4AA/	cu-	.	.	.	.	.	.	.	.
8D\	-jus	.	.	.	.	.	.	.	.
=22	=22	=22	=22	=22	=22	=22	=22	=22	=22
8C#/	As-	.	.	.	.	.	.	.	.
8BB/	-sum-	.	.	.	.	.	.	.	.
8AA/	-pti-	.	.	.	.	.	.	.	.
[8AA/	-o-	.	.	.	.	.	.	.	.
=23	=23	=23	=23	=23	=23	=23	=23	=23	=23
8AA/]	.	2r	.	2r	.	2r	.	2r	.
(16BB/LL	-ne	.	.	.	.	.	.	.	.
16C#/JJ)	.	.	.	.	.	.	.	.	.
8D\	gau-	.	.	.	.	.	.	.	.
8E\	-dent	.	.	.	.	.	.	.	.
=24	=24	=24	=24	=24	=24	=24	=24	=24	=24
4F#\	gau-	4r	.	4r	.	4r	.	4r	.
8F#\	-dent	8r	.	8r	.	8r	.	8r	.
8F#\	de	8A\	de	8c#\	de	8f#\	de	8a\	de
!LO:LB:g=original	!	!	!	!	!	!LO:LB:g=original	!	!	!
=25	=25	=25	=25	=25	=25	=25	=25	=25	=25
8F#\	cu-	8A\	cu-	8c#\	cu-	8f#\	cu-	8a\	cu-
16F#\	-jus	16G#X\	-jus	16c#\	-jus	16e#X\	-jus	16g#X\	-jus
16F#\	as-	16G#\	as-	16c#\	as-	16e#\	as-	16g#\	As-
8F#\	-sum-	8A\	-sum-	8c#\	-sum-	8f#\	-sum-	8a\	-sum-
8F#\	-ptio-	8B\	-ptio-	8c#\	-ptio-	8g#X\	-ptio-	8b\	-pti-
!	!	!	!	!LO:LB:g=original	!	!	!	!LO:LB:g=original	!
=26	=26	=26	=26	=26	=26	=26	=26	=26	=26
8F#\	-ne	8A\	-ne	8c#\	-ne	8c#\	-ne	8a\	-o-
4F#\	gau-	4A\	gau-	4c#\	gau-	(8c#\L	gau-	8a\	-ne
.	.	.	.	.	.	8e#X\J)	.	8a\	gau-
8F#\	-dent	8A\	-dent	8c#\	-dent	8f#\	-dent	8a\	-dent
!	!	!LO:LB:g=original	!	!	!	!	!	!	!
=27	=27	=27	=27	=27	=27	=27	=27	=27	=27
4.E\	an-	4.Gn\	An-	4.c#\	An-	4.a\	An-	4.gn\	An-
8E\	-ge-	8G\	-ge-	8c#\	-ge-	8a\	-ge-	8g\	-ge-
=28	=28	=28	=28	=28	=28	=28	=28	=28	=28
(8E\L	-li	4G\	-li	4A\	-li	4A\	-li	4g\	-li,
8D\J)	.	.	.	.	.	.	.	.	.
(8C#/L	gau-	[4G\	gau-	[4A\	gau-	[4A\	gau-	[4g\	gau-
8BB/J	.	.	.	.	.	.	.	.	.
=29	=29	=29	=29	=29	=29	=29	=29	=29	=29
8AA/)	.	8G\]	.	8A\]	.	8A\]	.	8g\]	.
8AA/	-dent	8G\	-dent	8B\	-dent	8B\	-dent	8g\	-dent
8.AA/	An-	8.F#\	An-	8.A\	an-	8.A\	an-	8.f#\	An-
16AA/	-ge-	16E\	-ge-	16A\	-ge-	16c#\	-ge-	16e\	-ge-
!LO:LB:g=original	!	!	!	!	!	!LO:LB:g=original	!	!	!
=30	=30	=30	=30	=30	=30	=30	=30	=30	=30
!	!	!LO:SIC:v:s=4.E	!	!	!	!	!	!LO:SIC:v:s=4.E	!
4.AA/	-li	4.F#\	-li	4.c#\	-li	4.e\	-li	4.f#\	-li,
8r	.	8r	.	8r	.	8r	.	8r	.
=31	=31	=31	=31	=31	=31	=31	=31	=31	=31
4.D\	gau-	4.F#\	gau-	4.A\	gau-	4.A\	gau-	4.f#\	gau-
8F#\	-de-	8A\	-de-	8A\	-de-	8d\	-de-	8a\	-de-
!	!	!	!	!LO:LB:g=original	!	!	!	!LO:LB:g=original	!
=32	=32	=32	=32	=32	=32	=32	=32	=32	=32
(8E/L	-a-	(8G\L	-a-	(8G/L	-a-	(8c#\L	-a-	8g\L	-a-
8D/J)	.	8F#\J)	.	8F#/J)	.	8B\J)	.	8f#\J	.
(8C#/L	-mus	4E\	-mus	4G/	-mus	4A\	-mus	4e\	-mus
8AA/J)	.	.	.	.	.	.	.	.	.
!	!	!LO:LB:g=original	!	!	!	!	!	!	!
=33	=33	=33	=33	=33	=33	=33	=33	=33	=33
8D\	o-	8F#\	o-	8F#/	o-	8A\	o-	(8f#\L	om-
(8E\L	-mnes	(8G\L	-mnes	(8G/L	-mnes	(16B\LL	-mnes	8g\J)	.
.	.	.	.	.	.	16c#\JJ	.	.	.
8F#\J)	.	8A\J)	.	8A/J)	.	8d\)	.	8a\	-nes
8G\	in	8B\	in	8B\	in	8e\	in	8b\	in
=34	=34	=34	=34	=34	=34	=34	=34	=34	=34
(4A\	Do-	(4A\	Do-	(4d\	Do-	(4f#\	Do-	(4a\	Do-
8AA/)	.	8G\)	.	8c#\)	.	8e\)	.	8g\L)	.
8AA/	-mi-	8G\	-mi-	8c#\	-mi-	8e\	-mi-	8g\J	-mi-
=35	=35	=35	=35	=35	=35	=35	=35	=35	=35
!	!	!	!	!	!	!LO:N:vis=4.	!	!	!
4D\	-no	4F#\	-no	4A\	-no	4d\	-no	4f#\	-no,
8r	.	8r	.	8r	.	8r	.	8r	.
16D\	sub	16F#\	sub	16A\	sub	16A\	sub	16f#\	sub
16D\	ho-	16F#\	ho-	16A\	ho-	16A\	ho-	16f#\	ho-
!LO:LB:g=original	!	!	!	!	!	!LO:LB:g=original	!	!	!
=36	=36	=36	=36	=36	=36	=36	=36	=36	=36
4.C#/	-no-	4.E\	-no-	4.A\	-no-	4.A\	-no-	4.e\	-no-
8Cn/	-re	8E\	-re	8F#/	-re	8A#X\	-re	8e\	-re
!	!	!	!	!LO:LB:g=original	!	!	!	!	!
=37	=37	=37	=37	=37	=37	=37	=37	=37	=37
8BB/	Be-	8D#X\	Be-	8F#/	Be-	8B\	Be-	8d#X\L	Be-
4BB/	-a-	(8F#\L	-a-	(8A/L	-a-	4B\	-a-	8f#\J	.
.	.	8E\J)	.	8G/J)	.	.	.	8e\L	-a-
!	!	!	!	!	!	!	!	!LO:SIC:v:l:s=-tae	!
8BB/	-tae	8D#\	-tae	8F#/	-tae	8B\	-tae	8d#\J	-te
!	!	!	!	!	!	!	!	!LO:LB:g=original	!
=38	=38	=38	=38	=38	=38	=38	=38	=38	=38
!LO:TX:a:i:t=ralentando	!	!	!	!	!	!	!	!	!
8BB/	Ma-	8E\	Ma-	8G/	Ma-	(8B\	Ma-	8e\L	Ma-
4BB/	-ri-	(8F#\L	-ri-	(8A\L	-ri-	16c#\LL	-ri-	8f#\J	.
.	.	.	.	.	.	16d#X\JJ)	.	.	.
.	.	8G\J)	.	8B\J)	.	8e\	.	8g\	-ri-
!	!	!	!	!	!	!	!	!LO:SIC:v:l:s=-ae	!
8AA/	-ae	8A\	-ae	8cn\	-ae	8f#\	-ae	8a\	-e
!	!	!LO:LB:g=original	!	!	!	!	!	!	!
=39	=39	=39	=39	=39	=39	=39	=39	=39	=39
4.BB/	Vir-	(4B\	Vir-	(4e\	Vir-	(4g\	Vir-	(4b\	Vir-
.	.	8A\)	.	8d#X\)	.	8f#\L)	.	8a\L)	.
8BB/	-gi-	8A\	-gi-	8d#\	-gi-	8f#\J	-gi-	8a\J	-gi-
=40	=40	=40	=40	=40	=40	=40	=40	=40	=40
8E\	-nis	8G\	-nis	8B\	-nis	8e\	-nis	8g\	-nis,
8r	.	8r	.	8r	.	8r	.	8r	.
[>4AA/	sub	[4G\	sub	[4A\	sub	[4e\	sub	[4g\	sub-
!	!	!	!	!	!	!LO:LB:g=original	!	!	!
=41	=41	=41	=41	=41	=41	=41	=41	=41	=41
8AA/]	.	8G\]	.	8A\]	.	8e\]	.	8g\]	.
8AA/	ho-	8F#X\	ho-	8A\	ho-	8d#X\	ho-	8f#\	-ho-
4AA/	-no-	(8G\L	-no-	4A\	-no-	(8e\L	-no-	8g\L	-no-
.	.	8E\J)	.	.	.	8c#\J)	.	8e\J	.
!LO:LB:g=original	!	!	!	!LO:LB:g=original	!	!	!	!	!
=42	=42	=42	=42	=42	=42	=42	=42	=42	=42
8AA/	-re	8G\	-re	8A\	-re	8e\	-re	8g\	-re,
8r	.	8r	.	8r	.	8r	.	8r	.
[>4AA/	sub	[4G\	sub	[4A\	sub	[4e\	sub	[4g\	sub
=43	=43	=43	=43	=43	=43	=43	=43	=43	=43
8AA/]	.	8G\]	.	8A\]	.	8e\]	.	8g\L]	.
8AA/	ho-	8F#\	ho-	8A\	ho-	8d\	ho-	8f#\J	ho-
4AA/	-no-	(8G\L	-no-	4A\	-no-	(8e\L	-no-	8g\L	-no-
.	.	8E\J)	.	.	.	8c#\J)	.	8e\J	.
!	!	!	!	!	!	!	!	!LO:LB:g=original	!
=44	=44	=44	=44	=44	=44	=44	=44	=44	=44
8AA/	-re	8G\	-re	8A\	-re	8e\	-re	8g\	-re
8AA/	Be-	8G\	Be-	8A\	Be-	8e\	Be-	8g\	Be-
4AA/	-a-	4G\	-a-	4A\	-a-	4e\	-a-	4g\	-a-
!	!	!LO:LB:g=original	!	!	!	!	!	!	!
=45	=45	=45	=45	=45	=45	=45	=45	=45	=45
!	!	!	!	!	!	!	!	!LO:SIC:v:l:s=-tae	!
8AA/	-tae	8G\	-tae	8A\	-tae	8e\	-tae	8g\	-te
8AA/	Ma-	8G\	Ma-	8A\	Ma-	8e\	Ma-	8g\	Ma-
8.AA/	-ri-	8.G\	-ri-	8.A\	-ri-	8.e\	-ri-	8.g\	-ri-
!	!	!	!	!	!	!	!	!LO:SIC:v:l:s=-ae	!
16AA/	-ae	16G\	-ae	16A\	-ae	16e\	-ae	16g\	-e
!	!	!	!	!	!	!LO:LB:g=original	!	!	!
=46	=46	=46	=46	=46	=46	=46	=46	=46	=46
4AA/	Vir-	4G\	Vir-	4A\	vir-	4e\	Vir-	4g\	Vir-
8AA/	-gi-	8G\	-gi-	8A\	-gi-	8e\	-gi-	8g\	-gi-
8AA;</	-nis.	8G;\	-nis	8A;\	-nis.	8e;\	-nis	8g;\	-nis
!	!	!	!	!LO:LB:g=original	!	!	!	!	!
=47	=47	=47	=47	=47	=47	=47	=47	=47	=47
!LO:TX:a:t=1.	!	!LO:TX:a:t=1.	!	!LO:TX:a:t=1.	!	!	!	!LO:TX:a:t=1.	!
2r	.	2r	.	2r	.	4r	.	2r	.
.	.	.	.	.	.	8r	.	.	.
.	.	.	.	.	.	16A\	di-	.	.
.	.	.	.	.	.	16A\	-em	.	.
!LO:LB:g=original	!	!	!	!	!	!	!	!	!
=48	=48	=48	=48	=48	=48	=48	=48	=48	=48
4r	.	4r	.	4r	.	4A\	fe-	4r	.
8r	.	8r	.	8r	.	8A\	-stum	8r	.
16C#/	di-	16E\	di-	16E/	di-	16A\	di-	16e\	di-
16C#/	-em	16E\	-em	16E/	-em	16A\	-em	16e\	-em
=49	=49	=49	=49	=49	=49	=49	=49	=49	=49
8D\	fe-	8F#\	fe-	8F#/	fe-	(8A\	fe-	8f#\	fe-
8E\	-stum	8G\	-stum	8G/	-stum	16B\LL	-stum	8g\	-stum
.	.	.	.	.	.	16c#\JJ	.	.	.
!	!	!	!	!	!	!	!	!LO:LB:g=original	!
8F#\	ce-	8A\	ce-	8A/	ce-	8d\)	ce-	8a\	ce-
8G\	-le-	8B\	-le-	8B\	-le-	8e\	-le-	8b\	-le-
!	!	!	!	!	!	!LO:LB:g=original	!	!	!
=50	=50	=50	=50	=50	=50	=50	=50	=50	=50
(4A\	-bran-	(4A\	-bran-	(4d\	-bran-	(4f#\	-bran-	4a\	-bran-
4AA/)	.	4G\)	.	4c#\)	.	4e\)	.	4g\	.
=51	=51	=51	=51	=51	=51	=51	=51	=51	=51
4D\	-tes	4F#\	-tes	4A\	-tes	4d\	-tes	4f#\	-tes
4r	.	4r	.	4r	.	8r	.	4r	.
.	.	.	.	.	.	16A\	sub	.	.
.	.	.	.	.	.	16A\	ho-	.	.
!	!	!LO:LB:g=original	!	!	!	!	!	!	!
=52	=52	=52	=52	=52	=52	=52	=52	=52	=52
4r	.	4r	.	4r	.	4A\	-no-	4r	.
8r	.	8r	.	8r	.	8A\	-re	8r	.
8C#/	Be-	8E\	Be-	8E/	Be-	8A\	Be-	8e\	Be-
=53	=53	=53	=53	=53	=53	=53	=53	=53	=53
!	!	!	!	!	!	!	!	!LO:SIC:v:l:s=-atae	!
8D\	-a-	8F#\	-a-	8F#/	-a-	(8A\	-a-	8f#\	-ate
8E\	-tae	8G\	-tae	8G/	-tae	16B\LL	-tae	8g\	Ma-
.	.	.	.	.	.	16c#\JJ)	.	.	.
8F#\	Ma-	8A\	Ma-	8A\	Ma-	8d\	Ma-	8a\	-ri-
!	!	!	!	!	!	!	!	!LO:SIC:v:l:s=-ae	!
8G\	-riae	8B\	-riae	8B\	-riae	8e\	-riae	8b\	-e
!LO:LB:g=original	!	!	!	!LO:LB:g=original	!	!	!	!	!
=54	=54	=54	=54	=54	=54	=54	=54	=54	=54
(4A\	Vir-	4.d\	Vir-	(4d\	Vir-	(4f#\	Vir-	4.dd\	Vir-
8cn\)	.	.	.	8f#\)	.	8a\)	.	.	.
8c\	-gi-	8d\	-gi-	8f#\	-gi-	8a\	-gi-	8dd\	-gi-
!	!	!	!	!	!	!LO:LB:g=original	!	!	!
=55	=55	=55	=55	=55	=55	=55	=55	=55	=55
4B\	-nis	4d\	-nis	4g\	-nis	4g\	-nis	4dd\	-nis,
8r	.	8r	.	8r	.	8r	.	8r	.
8G\	de	8B\	de	8B\	de	8d\	de	8b\	de
!	!	!	!	!	!	!	!	!LO:LB:g=original	!
=56	=56	=56	=56	=56	=56	=56	=56	=56	=56
4.G\	cu-	4.B\	cu-	4.B\	cu-	4.d\	cu-	4.b\	cu-
16F#\	-jus	16A\	-jus	16B\	-jus	16d#X\	jus	16a\	-jus
16F#\	as-	16A\	As-	16B\	as-	16d#\	as-	16a\	as-
=57	=57	=57	=57	=57	=57	=57	=57	=57	=57
8E\	-sum-	8G\	-sum-	8B\	-sum-	8e\	-sum-	8g\	-sum-
8D#X\	-pti-	(8A\	-ptio-	4B\	-ptio-	(8f#\	-ptio-	8a\	-pti-
8E\	-o-	8G\)	.	.	.	8g\)	.	8g\	-o-
8D#\	-ne	8A\	-ne	8B\	-ne	8f#\	-ne	8a\	-ne
!	!	!LO:LB:g=original	!	!	!	!	!	!	!
=58	=58	=58	=58	=58	=58	=58	=58	=58	=58
4E\	gau-	4G\	gau-	4B\	gau-	4g\	gau-	4g\	gau-
4AA/	-dent	4G\	-dent	4c#\	-dent	4e\	-dent	4g\	-dent
=59	=59	=59	=59	=59	=59	=59	=59	=59	=59
8r	.	8r	.	8r	.	8r	.	8r	.
8E\	gau-	8E\	gau-	8B\	gau-	8g\	gau-	8e\	gau-
8E\	-dent	8E\	-dent	8B\	-dent	8g\	-dent	8e\	-dent
[8E\	An-	[8E\	An-	(8B\	an-	[8g\	an-	[8e\	An-
!LO:LB:g=original	!	!	!	!LO:LB:g=original	!	!	!	!	!
=60	=60	=60	=60	=60	=60	=60	=60	=60	=60
4E\]	.	4E\]	.	4A\)	.	4g\]	.	4e\]	.
8AA/	-ge-	8G\	-ge-	8c#\	-ge-	8e\	-ge-	8g\	-ge-
!	!	!	!	!	!	!	!	!LO:TX:t=P:problem:2 takty wykreślone po takcie 60	!
8AA/	-li	8G\	-li	8c#\	-li	8e\	-li	8g\	-li
!	!	!	!	!	!	!LO:LB:g=original	!	!LO:LB:g=original	!
=61	=61	=61	=61	=61	=61	=61	=61	=61	=61
8r	.	8r	.	8r	.	8r	.	8r	.
8E\	gau-	8E\	gau-	8B\	gau-	8g\	gau-	8e\	gau-
8E\	-dent	8E\	-dent	8B\	-dent	8g\	-dent	8e\	-dent
[8E\	An-	[8E\	An-	[8B\	an-	[8g\	an-	[8e\	An-
=62	=62	=62	=62	=62	=62	=62	=62	=62	=62
4E\]	.	4E\]	.	4B\]	.	4g\]	.	4e\]	.
4AA/	-ge-	4G\	-ge-	4c#\	-ge-	4e\	-ge-	4g\	-ge-
=63	=63	=63	=63	=63	=63	=63	=63	=63	=63
[2AA/	-li	[2G\	-li	2c#\	-li	2e\	-li	2g\	-li,
=64	=64	=64	=64	=64	=64	=64	=64	=64	=64
2AA;/]	.	2G;\]	.	2c#;\	.	2e;\	.	2g;\	.
!	!	!LO:LB:g=original	!	!	!	!	!	!LO:LB:g=original	!
=65	=65	=65	=65	=65	=65	=65	=65	=65	=65
!LO:TX:a:t=1.	!	!LO:TX:a:t=1.	!	!LO:TX:a:t=1.	!	!	!	!LO:TX:a:t=1.	!
2r	.	2r	.	2r	.	4r	.	2r	.
.	.	.	.	.	.	8r	.	.	.
.	.	.	.	.	.	16A\	et	.	.
.	.	.	.	.	.	16A\	col-	.	.
=66	=66	=66	=66	=66	=66	=66	=66	=66	=66
4r	.	4r	.	4r	.	4.A\	-lau-	4r	.
8r	.	8r	.	8r	.	.	.	8r	.
16C#/	et	16E\	et	16E/	et	8A\	-dant	16e\	et
16C#/	col-	16E\	col-	16E/	col-	.	.	16e\	col-
!LO:LB:g=original	!	!	!	!LO:LB:g=original	!	!	!	!	!
=67	=67	=67	=67	=67	=67	=67	=67	=67	=67
8D\	-lau-	8F#\	-lau-	8F#/	-lau-	(8A\	fi-	8f#\	-lau-
8E\	-dant	8G\	-dant	8G/	-dant	16B\LL	.	8g\	-dant
.	.	.	.	.	.	16c#\JJ)	.	.	.
8F#\	fi-	8A\	fi-	8A\	fi-	8d\	-li-	8a\	fi-
16G\	-li-	16B\	-li-	16B\	-li-	8e\	-um	16b\	-li-
16G\	-um	16B\	-um	16B\	-um	.	.	16b\	-um
!	!	!	!	!	!	!LO:LB:g=original	!	!	!
=68	=68	=68	=68	=68	=68	=68	=68	=68	=68
(4A\	de-	(4A\	De-	(4d\	De-	(4f#\	De-	4a\	De-
4AA/)	.	4G\)	.	4c#\)	.	4e\)	.	4g\	.
=69	=69	=69	=69	=69	=69	=69	=69	=69	=69
4D\	-i	4F#\	-i	4A\	-i	4d\	-i	4f#\	-i
4r	.	4r	.	4r	.	8r	.	4r	.
.	.	.	.	.	.	16A\	et	.	.
.	.	.	.	.	.	16A\	col-	.	.
=70	=70	=70	=70	=70	=70	=70	=70	=70	=70
4r	.	4r	.	4r	.	4.A\	-lau-	4r	.
8r	.	8r	.	8r	.	.	.	8r	.
16C#/	et	16E\	et	16E/	et	8A\	-dant	16e\	et
16C#/	col-	16E\	col-	16E/	col-	.	.	16e\	col-
!	!	!LO:LB:g=original	!	!	!	!	!	!LO:LB:g=original	!
=71	=71	=71	=71	=71	=71	=71	=71	=71	=71
8D\	-lau-	8F#\	-lau-	8F#/	-lau-	(8A\	fi-	8f#\	-lau-
8E\	-dant	8G\	-dant	8G/	-dant	16B\LL	.	8g\	-dant
.	.	.	.	.	.	16c#\JJ)	.	.	.
8F#\	fi-	8A\	fi-	8A\	fi-	8d\	-li-	8a\	fi-
16G\	-li-	16B\	-li-	16B\	-li-	8e\	-um	16b\	-li-
16G\	-um	16B\	-um	16B\	-um	.	.	16b\	-um
!LO:LB:g=original	!	!	!	!LO:LB:g=original	!	!	!	!	!
=72	=72	=72	=72	=72	=72	=72	=72	=72	=72
(4A\	De-	(4A\	De-	(4d\	De-	(4f#\	De-	4a\	De-
4AA/)	.	4G\)	.	4c#\)	.	4e\)	.	4g\	.
=73	=73	=73	=73	=73	=73	=73	=73	=73	=73
4.D\	-i.	4.F#\	-i.	4.A\	-i.	4.d\	-i.	4.f#\	-i.
8r	.	8r	.	8r	.	8r	.	8r	.
==	==	==	==	==	==	==	==	==	==
*-	*-	*-	*-	*-	*-	*-	*-	*-	*-
!!!system-decoration: [(g1)]
!!!RDF**kern: >= above
!!!RDF**kern: <= below
!!!ENC:Anna Matuszewska
!!!END:2021-02-01
!!!ENC: Andrzej Borzym
!!!END: 2021-01-23
